X: 08020
T: CECE'S REEL
C: Bob McQuillen 8 Jan 91
B: Bob's Note Book 8 #20
%R: reel
Z: 2021 John Chambers <jc:trillian.mit.edu>
M: C	% Actually, the booklet has no time signature for this tune.
L: 1/8
K: D
AG \
| FDFA GBAG | FAdc d2ed | cdef gfed | cedB AGFE |\
| FDFA GBAG | FAdc dfed | cAdf gfed | Addc d2 :|
|: ag \
| faba f2de | fdBd A2de | faba gfed | c2e2 e2de |\
| fdBd AdBd | fafd edcB | Adfa gecd | e2dc d2 :|
%%begintext align
%% You ain't seen
%% nothin' yet if you haven't run up against Cecilia
%% McGowan from Spokane, WA - Cece (pro. See-See)
%% is a great dancer and an even greater story-teller,
%% and we all love it when she's at the Lady of the Lake -
%% Much love to you, Cece -
%%endtext

%%sep 1 1 500

%%sep 1 1 500

